X: 87
M: 4/4
L: 1/4
K: Eb
[| E G E G | B e B2 | A2 F2 | G E E2 |
[| E G E G | B e B2 | A2 F2 | G E E2 |
[| E G E G | B e c2 | B2 (c d) | e E E2 |]


